22x22/apps/solarus-launcher.svg

<svg xmlns="http://www.w3.org/2000/svg" width="22" height="22"><path style="opacity:.2" d="M5 6.5a5 5 0 0 0-5 5 5 5 0 0 0 5 5 5 5 0 0 0 3.992-2h4.016a5 5 0 0 0 3.992 2 5 5 0 0 0 5-5 5 5 0 0 0-5-5z"/><path style="fill:#ffa800" d="M5 6h12v8H5z"/><circle style="fill:#ffa800" cx="5" cy="11" r="5"/><circle style="fill:#ffa800" cx="17" cy="11" r="5"/><path style="opacity:.2" d="M4.5 8.5c-.277 0-.5.223-.5.5v1.5H2.5c-.277 0-.5.223-.5.5v1c0 .277.223.5.5.5H4V14c0 .277.223.5.5.5h1c.277 0 .5-.223.5-.5v-1.5h1.5c.277 0 .5-.223.5-.5v-1c0-.277-.223-.5-.5-.5H6V9c0-.277-.223-.5-.5-.5zm12.5 0a1 1 0 0 0-1 1 1 1 0 0 0 1 1 1 1 0 0 0 1-1 1 1 0 0 0-1-1zm-2 2a1 1 0 0 0-1 1 1 1 0 0 0 1 1 1 1 0 0 0 1-1 1 1 0 0 0-1-1zm4 0a1 1 0 0 0-1 1 1 1 0 0 0 1 1 1 1 0 0 0 1-1 1 1 0 0 0-1-1zm-2 2a1 1 0 0 0-1 1 1 1 0 0 0 1 1 1 1 0 0 0 1-1 1 1 0 0 0-1-1z"/><rect style="fill:#f4f4f7" width="2" height="6" x="4" y="8" rx=".5" ry=".5"/><rect style="fill:#f4f4f7" width="2" height="6" x="10" y="-8" rx=".5" ry=".5" transform="rotate(90)"/><circle style="fill:#f4f4f7" cx="17" cy="9" r="1"/><circle style="fill:#f4f4f7" cx="17" cy="13" r="1"/><circle style="fill:#f4f4f7" cx="11" cy="-19" r="1" transform="rotate(90)"/><circle style="fill:#f4f4f7" cx="11" cy="-15" r="1" transform="rotate(90)"/><path style="opacity:.2;fill:#f4f4f7" d="M5 6a5 5 0 0 0-5 5 5 5 0 0 0 .01.207A5 5 0 0 1 5 6.5h12a5 5 0 0 1 4.99 4.793A5 5 0 0 0 22 11a5 5 0 0 0-5-5z"/></svg>

<svg xmlns="http://www.w3.org/2000/svg" width="22" height="22" version="1.1">
 <path style="opacity:0.2" d="m 5,6.5 a 5,5 0 0 0 -5,5 5,5 0 0 0 5,5 5,5 0 0 0 3.9921875,-2 H 13.007812 A 5,5 0 0 0 17,16.5 a 5,5 0 0 0 5,-5 5,5 0 0 0 -5,-5 z"/>
 <rect style="fill:#ffa800" width="12" height="8" x="5" y="6"/>
 <circle style="fill:#ffa800" cx="5" cy="11" r="5"/>
 <circle style="fill:#ffa800" cx="17" cy="11" r="5"/>
 <path style="opacity:0.2" d="M 4.5,8.5 C 4.223,8.5 4,8.723 4,9 v 1.5 H 2.5 C 2.223,10.5 2,10.723 2,11 v 1 c 0,0.277 0.223,0.5 0.5,0.5 H 4 V 14 c 0,0.277 0.223,0.5 0.5,0.5 h 1 C 5.777,14.5 6,14.277 6,14 V 12.5 H 7.5 C 7.777,12.5 8,12.277 8,12 V 11 C 8,10.723 7.777,10.5 7.5,10.5 H 6 V 9 C 6,8.723 5.777,8.5 5.5,8.5 Z m 12.5,0 a 1,1 0 0 0 -1,1 1,1 0 0 0 1,1 1,1 0 0 0 1,-1 1,1 0 0 0 -1,-1 z m -2,2 a 1,1 0 0 0 -1,1 1,1 0 0 0 1,1 1,1 0 0 0 1,-1 1,1 0 0 0 -1,-1 z m 4,0 a 1,1 0 0 0 -1,1 1,1 0 0 0 1,1 1,1 0 0 0 1,-1 1,1 0 0 0 -1,-1 z m -2,2 a 1,1 0 0 0 -1,1 1,1 0 0 0 1,1 1,1 0 0 0 1,-1 1,1 0 0 0 -1,-1 z"/>
 <rect style="fill:#f4f4f7" width="2" height="6" x="4" y="8" rx=".5" ry=".5"/>
 <rect style="fill:#f4f4f7" width="2" height="6" x="10" y="-8" rx=".5" ry=".5" transform="rotate(90)"/>
 <circle style="fill:#f4f4f7" cx="17" cy="9" r="1"/>
 <circle style="fill:#f4f4f7" cx="17" cy="13" r="1"/>
 <circle style="fill:#f4f4f7" cx="11" cy="-19" r="1" transform="rotate(90)"/>
 <circle style="fill:#f4f4f7" cx="11" cy="-15" r="1" transform="rotate(90)"/>
 <path style="opacity:0.2;fill:#f4f4f7" d="M 5,6 A 5,5 0 0 0 0,11 5,5 0 0 0 0.0107422,11.207031 5,5 0 0 1 5,6.5 H 17 A 5,5 0 0 1 21.989258,11.292969 5,5 0 0 0 22,11 5,5 0 0 0 17,6 Z"/>
</svg>
